icon-svg/sleep-timer.svg

<svg xmlns="http://www.w3.org/2000/svg" viewBox="0 0 24 24"><path fill="#44739e" d="M18.243 5.422c-.106.125-.206.242-.314.375l-1.486 1.936v.318h2.635v-.435h-1.963l.15-.175c.117-.138.216-.261.31-.388l1.469-1.91.006-.346h-2.471v.441h1.824Zm2.19.238.155-.176c.081-.093.149-.176.217-.264l1.168-1.459.005-.259H20.02v.328h1.456l-.157.177c-.075.085-.149.169-.226.261l-1.182 1.477v.237H22V5.66Zm-4.784 4.698h-2.592l.155-.176c.171-.195.313-.368.448-.544l1.943-2.469.009-.456h-3.285v.583h2.403l-.2.229c-.141.161-.275.315-.416.485l-1.969 2.503v.421h3.504Zm-10.417 5.43a7.195 7.195 0 0 0 10.185 1.702 8.1 8.1 0 0 1-7.72-3.544 8.59 8.59 0 0 1-.468-8.041 7.19 7.19 0 0 0-1.997 9.883m10.185-3.837a.19.19 0 0 0-.188-.189h-3.456a.84.84 0 0 0-.566-.567V5.951a.23.23 0 0 0-.233-.232.246.246 0 0 0-.247.247v5.229a.842.842 0 1 0 1.046 1.047h3.445a.2.2 0 0 0 .2-.2Zm2.156-4.547h1.123a9 9 0 0 0-.52-.777l-.424.553Zm.383.86a7.958 7.958 0 1 1-1.041-1.496l.659-.858a9 9 0 0 0-.456-.46h-.752v-.634a8.979 8.979 0 1 0 2.778 3.448Z"/></svg>

<?xml version="1.0" encoding="UTF-8"?>
<svg width="24px" fill="#44739e" height="24px" viewBox="0 0 24 24" version="1.1" xmlns="http://www.w3.org/2000/svg" xmlns:xlink="http://www.w3.org/1999/xlink">
            <path d="M 18.248,5.428 C 18.142,5.553 18.042,5.67 17.934,5.803 L 16.45,7.736 v 0.318 h 2.632 V 7.62 h -1.961 l 0.15,-0.175 c 0.117,-0.138 0.216,-0.261 0.31,-0.388 v 0 L 19.048,5.15 19.054,4.804 h -2.468 v 0.441 h 1.821 z M 20.435,5.666 20.59,5.49 c 0.081,-0.093 0.149,-0.176 0.216,-0.263 l 1.167,-1.458 0.005,-0.258 h -1.956 v 0.327 h 1.455 L 21.32,4.015 C 21.245,4.1 21.171,4.184 21.094,4.276 l -1.18,1.475 V 5.988 H 22 V 5.666 Z m -4.778,4.692 h -2.589 l 0.155,-0.176 C 13.394,9.988 13.536,9.815 13.67,9.639 v 0 L 15.611,7.173 15.62,6.718 H 12.339 V 7.3 h 2.4 l -0.2,0.229 C 14.398,7.69 14.265,7.843 14.124,8.013 l -1.967,2.5 v 0.42 h 3.5 z M 5.253,15.781 a 7.186,7.186 0 0 0 10.172,1.7 8.088,8.088 0 0 1 -7.71,-3.539 8.579,8.579 0 0 1 -0.468,-8.031 7.179,7.179 0 0 0 -1.994,9.87 z M 15.425,11.949 A 0.189,0.189 0 0 0 15.237,11.76 H 11.786 A 0.841,0.841 0 0 0 11.22,11.194 V 5.957 A 0.232,0.232 0 0 0 10.988,5.725 0.246,0.246 0 0 0 10.741,5.972 v 5.222 a 0.841,0.841 0 1 0 1.045,1.046 h 3.44 a 0.2,0.2 0 0 0 0.2,-0.2 z M 17.579,7.408 H 18.7 A 9.035,9.035 0 0 0 18.181,6.632 L 17.757,7.184 C 17.7,7.259 17.639,7.332 17.579,7.408 Z m 0.382,0.859 A 7.948,7.948 0 1 1 16.921,6.773 L 17.58,5.916 C 17.433,5.757 17.28,5.603 17.124,5.456 H 16.373 V 4.823 a 8.968,8.968 0 1 0 2.775,3.444 z"/>

</svg>
